app/dist/common/images/hunan-changyuan-lico-coltd.svg

<svg height="18" viewBox="0 0 18 18" width="18" xmlns="http://www.w3.org/2000/svg"><path d="m0 0h18v18h-18z" fill="#f0f3fa"/><circle cx="9" cy="9" fill="#cf202e" r="5"/><path d="m6.33 9.45h-.33v.55h1.33l1.5-1.1h-1l.5-.9h.34l.33.36.33-.36h.34l.5.9h-1l1.5 1.1h1.33v-.55h-.33l-.67-2.45h-1.5l-.5.4-.5-.4h-1.5z" fill="#fefbfe"/><path d="m4 13 5-4.44 5 4.44v1h-10z" fill="#393943"/><g fill="#fefffb"><path d="m4.13 13 4.87-4.44-4.47 4.44v.54h.27v.35h-.67zm1.87 0 3-4-2 4z"/><circle cx="8.5" cy="13.5" r=".5"/><circle cx="6.5" cy="13.5" r=".5"/><circle cx="10.5" cy="13.5" r=".5"/><circle cx="12.5" cy="13.5" r=".5"/><path d="m8 13 1-4v4zm2 0-1-4 2 4zm2 0-3-4 4 4z"/></g><path d="m4.14 13h9.86v.12h-10v-.12z"/></svg>

<!-- by TradingView --><svg width="18" height="18" viewBox="0 0 18 18" xmlns="http://www.w3.org/2000/svg"><path fill="#F0F3FA" d="M0 0h18v18H0z"/><circle cx="9" cy="9" r="5" fill="#CF202E"/><path d="M6.33 9.45H6V10h1.33l1.5-1.1h-1l.5-.9h.34l.33.36.33-.36h.34l.5.9h-1l1.5 1.1H12v-.55h-.33L11 7H9.5l-.5.4-.5-.4H7l-.67 2.45Z" fill="#FEFBFE"/><path d="m4 13 5-4.44L14 13v1H4v-1Z" fill="#393943"/><path d="M4.13 13 9 8.56 4.53 13v.54h.27v.35h-.67V13ZM6 13l3-4-2 4H6Z" fill="#FEFFFB"/><circle cx="8.5" cy="13.5" r=".5" fill="#FEFFFB"/><circle cx="6.5" cy="13.5" r=".5" fill="#FEFFFB"/><circle cx="10.5" cy="13.5" r=".5" fill="#FEFFFB"/><circle cx="12.5" cy="13.5" r=".5" fill="#FEFFFB"/><path d="m8 13 1-4v4H8ZM10 13 9 9l2 4h-1ZM12 13 9 9l4 4h-1Z" fill="#FEFFFB"/><path d="M4.14 13H14v.12H4V13h.14Z"/></svg>
